src/asset/24px/filter.svg

<svg width="24" height="24" viewBox="0 0 24 24" fill="none" xmlns="http://www.w3.org/2000/svg">
<path fill-rule="evenodd" clip-rule="evenodd" d="M2.42818 6.21209C1.42513 4.89559 2.36396 3 4.01904 3H19.9809C21.636 3 22.5748 4.89559 21.5717 6.21209L15 14.8375V20C15 21.1046 14.1045 22 13 22H11C9.89539 22 8.99996 21.1046 8.99996 20V14.8375L2.42818 6.21209ZM19.9809 5L4.01904 5L10.7954 13.894C10.9281 14.0681 11 14.281 11 14.5V20H13V14.5C13 14.281 13.0718 14.0681 13.2045 13.894L19.9809 5Z" fill="#808080"/>
</svg>

<svg width="24" height="24" fill="none" xmlns="http://www.w3.org/2000/svg"><path fill-rule="evenodd" clip-rule="evenodd" d="M2.428 6.212C1.425 4.896 2.364 3 4.02 3h15.962c1.655 0 2.594 1.896 1.59 3.212L15 14.838V20a2 2 0 01-2 2h-2a2 2 0 01-2-2v-5.162L2.428 6.212zM19.981 5H4.019l6.776 8.894A1 1 0 0111 14.5V20h2v-5.5a1 1 0 01.204-.606L19.982 5z" fill="gray"/></svg>
